X: 15282
T: Girl With The Blue Dress On, The
R: polka
M: 2/4
K: Gmajor
|:B/c/|d2 cA/c/|BG G2|AF F/E/D/F/|AG G/A/B/c/|
dB/d/ cA/c/|BG GB|AF FE/F/|1 AG G:|2 AG G2||
GB/d/ ga/g/|fe e2|DF/A/ f>e|ed d/c/B/A/|
G2 ga/g/|fe eg|fa e>f|g2- gB/A/|
GB/d/ g2|fe/^d/ ed/^c/|D (3F/G/A/ f2|ed/^c/ dc/d/|
GB gd|fe ea/g/|fa/f/ ef|g2- g||

